icons-dark/apps/48/cervisia.svg

<svg viewBox="0 0 48 48" xmlns="http://www.w3.org/2000/svg" xmlns:xlink="http://www.w3.org/1999/xlink">
    <linearGradient id="a" gradientUnits="userSpaceOnUse" x1="4" x2="4" y1="3" y2="45">
        <stop offset="0" stop-color="#f10000"/>
        <stop offset="1" stop-color="#b20000"/>
    </linearGradient>
    <path d="m6.4003906 4c-1.3296 0-2.4003906 1.0707906-2.4003906 2.4003906v7.1992184c0 1.3296 1.0707906 2.400391 2.4003906 2.400391h14.199218c1.3296 0 2.400391-1.070791 2.400391-2.400391v-7.1992184c0-1.3296-1.070791-2.4003906-2.400391-2.4003906zm21 0c-1.3296 0-2.400391 1.0707906-2.400391 2.4003906v7.1992184c0 1.3296 1.070791 2.400391 2.400391 2.400391h14.199218c1.3296 0 2.400391-1.070791 2.400391-2.400391v-7.1992184c0-1.3296-1.070791-2.4003906-2.400391-2.4003906zm-12 14c-1.3296 0-2.400391 1.070791-2.400391 2.400391v7.199218c0 1.3296 1.070791 2.400391 2.400391 2.400391h14.199218c1.3296 0 2.400391-1.070791 2.400391-2.400391v-7.199218c0-1.3296-1.070791-2.400391-2.400391-2.400391zm21 0c-1.3296 0-2.400391 1.070791-2.400391 2.400391v7.199218c0 1.3296 1.070791 2.400391 2.400391 2.400391h7.599609v-12zm-30 14c-1.3296 0-2.4003906 1.070791-2.4003906 2.400391v7.199218c0 1.3296 1.0707906 2.400391 2.4003906 2.400391h14.199218c1.3296 0 2.400391-1.070791 2.400391-2.400391v-7.199218c0-1.3296-1.070791-2.400391-2.400391-2.400391zm21 0c-1.3296 0-2.400391 1.070791-2.400391 2.400391v7.199218c0 1.3296 1.070791 2.400391 2.400391 2.400391h14.199218c1.3296 0 2.400391-1.070791 2.400391-2.400391v-7.199218c0-1.3296-1.070791-2.400391-2.400391-2.400391z" fill="url(#a)"/>
    <path d="m21 4.0410156v7.9589844c0 1.108-.892 2-2 2h-14.958984c.190671 1.136455 1.16718 2 2.359375 2h14.199218c1.3296 0 2.400391-1.070791 2.400391-2.400391v-7.1992184c0-1.1921945-.863545-2.1687041-2-2.359375zm21 0v7.9589844c0 1.108-.892 2-2 2h-14.958984c.190671 1.136455 1.16718 2 2.359375 2h14.199218c1.3296 0 2.400391-1.070791 2.400391-2.400391v-7.1992184c0-1.1921945-.863545-2.1687041-2-2.359375zm-12 14v7.958984c0 1.108-.892 2-2 2h-14.958984c.190671 1.136455 1.16718 2 2.359375 2h14.199218c1.3296 0 2.400391-1.070791 2.400391-2.400391v-7.199218c0-1.192195-.863545-2.168704-2-2.359375zm4.041016 9.958984c.190671 1.136455 1.16718 2 2.359375 2h7.599609v-2zm-13.041016 4.041016v7.958984c0 1.108-.892 2-2 2h-14.958984c.190671 1.136455 1.16718 2 2.359375 2h14.199218c1.3296 0 2.400391-1.070791 2.400391-2.400391v-7.199218c0-1.192195-.863545-2.168704-2-2.359375zm21 0v7.958984c0 1.108-.892 2-2 2h-14.958984c.190671 1.136455 1.16718 2 2.359375 2h14.199218c1.3296 0 2.400391-1.070791 2.400391-2.400391v-7.199218c0-1.192195-.863545-2.168704-2-2.359375z" fill="#101010" opacity=".23"/>
</svg>

<?xml version="1.0" encoding="UTF-8" standalone="no"?>
<svg
   width="48"
   height="48"
   viewBox="0 0 48 48"
   >
  <defs
     id="defs6">
    <linearGradient
       inkscape:collect="always"
       xlink:href="#linearGradient4301"
       id="linearGradient4656"
       x1="25"
       y1="3"
       x2="25"
       y2="45"
       gradientUnits="userSpaceOnUse" />
    <linearGradient
       id="linearGradient4301">
      <stop
         style="stop-color:#f10000;stop-opacity:1"
         offset="0"
         id="stop4303" />
      <stop
         style="stop-color:#b20000;stop-opacity:1"
         offset="1"
         id="stop4305" />
    </linearGradient>
  </defs>
  <path
     style="fill:url(#linearGradient4656)"
     d="M 6.4003906 4 C 5.0707906 4 4 5.0707906 4 6.4003906 L 4 13.599609 C 4 14.929209 5.0707906 16 6.4003906 16 L 20.599609 16 C 21.929209 16 23 14.929209 23 13.599609 L 23 6.4003906 C 23 5.0707906 21.929209 4 20.599609 4 L 6.4003906 4 z M 27.400391 4 C 26.070791 4 25 5.0707906 25 6.4003906 L 25 13.599609 C 25 14.929209 26.070791 16 27.400391 16 L 41.599609 16 C 42.929209 16 44 14.929209 44 13.599609 L 44 6.4003906 C 44 5.0707906 42.929209 4 41.599609 4 L 27.400391 4 z M 15.400391 18 C 14.070791 18 13 19.070791 13 20.400391 L 13 27.599609 C 13 28.929209 14.070791 30 15.400391 30 L 29.599609 30 C 30.929209 30 32 28.929209 32 27.599609 L 32 20.400391 C 32 19.070791 30.929209 18 29.599609 18 L 15.400391 18 z M 36.400391 18 C 35.070791 18 34 19.070791 34 20.400391 L 34 27.599609 C 34 28.929209 35.070791 30 36.400391 30 L 44 30 L 44 18 L 36.400391 18 z M 6.4003906 32 C 5.0707906 32 4 33.070791 4 34.400391 L 4 41.599609 C 4 42.929209 5.0707906 44 6.4003906 44 L 20.599609 44 C 21.929209 44 23 42.929209 23 41.599609 L 23 34.400391 C 23 33.070791 21.929209 32 20.599609 32 L 6.4003906 32 z M 27.400391 32 C 26.070791 32 25 33.070791 25 34.400391 L 25 41.599609 C 25 42.929209 26.070791 44 27.400391 44 L 41.599609 44 C 42.929209 44 44 42.929209 44 41.599609 L 44 34.400391 C 44 33.070791 42.929209 32 41.599609 32 L 27.400391 32 z "
     />
  <path
     style="fill:#101010;opacity:0.23"
     d="M 21,4.0410156 V 12 c 0,1.108 -0.892,2 -2,2 H 4.041016 c 0.190671,1.136455 1.16718,2 2.359375,2 H 13 20.599609 C 21.929209,16 23,14.929209 23,13.599609 V 12 6.4003906 C 23,5.2081961 22.136455,4.2316865 21,4.0410156 Z m 21,0 V 12 c 0,1.108 -0.892,2 -2,2 H 25.041016 c 0.190671,1.136455 1.16718,2 2.359375,2 H 28 34 41.599609 C 42.929209,16 44,14.929209 44,13.599609 V 6.4003906 C 44,5.2081961 43.136455,4.2316865 42,4.0410156 Z M 30,18.041016 V 26 c 0,1.108 -0.892,2 -2,2 H 13.041016 c 0.190671,1.136455 1.16718,2 2.359375,2 H 19 25 29.599609 C 30.929209,30 32,28.929209 32,27.599609 V 26 20.400391 c 0,-1.192195 -0.863545,-2.168704 -2,-2.359375 z M 34.041016,28 c 0.190671,1.136455 1.16718,2 2.359375,2 H 40 44 V 28 Z M 21,32.041016 V 40 c 0,1.108 -0.892,2 -2,2 H 4.041016 c 0.190671,1.136455 1.16718,2 2.359375,2 H 20.599609 C 21.929209,44 23,42.929209 23,41.599609 V 40 34.400391 c 0,-1.192195 -0.863545,-2.168704 -2,-2.359375 z m 21,0 V 40 c 0,1.108 -0.892,2 -2,2 H 25.041016 c 0.190671,1.136455 1.16718,2 2.359375,2 H 41.599609 C 42.929209,44 44,42.929209 44,41.599609 v -7.199218 c 0,-1.192195 -0.863545,-2.168704 -2,-2.359375 z"
     />
</svg>
